X:18253
T:Varianten zum Lunzer Boarisch 
S:collection Elisabeth und Christoph Huspeka
Z:abc transcription Simon Wascher
N:please mail errors to: simon.wascher@chello.at
M:2/4
L:1/16
K:G
FAD2 F2A2|GBD2 G2B2|FAD2 F2A2|GFG2 A2B2|
d2B2 c2A2|GBD2 G2B2|FAD2 F2A2|G2G2G4:|
K:C
|:G2e2 d2c2|B2Bcd4|G2d2 c2B2|c2cde4|
G2e2 d2c2|B2Bcd4|G2G2 A2B2|c2c2c4:|


